static/images/animations/realtime-graph.svg

<svg width="324" height="133" viewBox="0 0 324 133" fill="none" xmlns="http://www.w3.org/2000/svg">
<g clip-path="url(#clip0_3990_110673)">
<path d="M15.8661 4.27273V13H14.8093V5.38068H14.7582L12.6275 6.79545V5.72159L14.8093 4.27273H15.8661ZM21.2227 13.1193C20.5806 13.1193 20.0337 12.9446 19.582 12.5952C19.1303 12.2429 18.7852 11.733 18.5465 11.0653C18.3079 10.3949 18.1886 9.58523 18.1886 8.63636C18.1886 7.69318 18.3079 6.88778 18.5465 6.22017C18.788 5.54972 19.1346 5.03835 19.5863 4.68608C20.0408 4.33097 20.5863 4.15341 21.2227 4.15341C21.859 4.15341 22.4031 4.33097 22.8548 4.68608C23.3093 5.03835 23.6559 5.54972 23.8945 6.22017C24.136 6.88778 24.2567 7.69318 24.2567 8.63636C24.2567 9.58523 24.1374 10.3949 23.8988 11.0653C23.6602 11.733 23.315 12.2429 22.8633 12.5952C22.4116 12.9446 21.8647 13.1193 21.2227 13.1193ZM21.2227 12.1818C21.859 12.1818 22.3533 11.875 22.7056 11.2614C23.0579 10.6477 23.234 9.77273 23.234 8.63636C23.234 7.88068 23.1531 7.23722 22.9911 6.70597C22.832 6.17472 22.6019 5.76989 22.3008 5.49148C22.0025 5.21307 21.6431 5.07386 21.2227 5.07386C20.592 5.07386 20.0991 5.38494 19.744 6.0071C19.3888 6.62642 19.2113 7.50284 19.2113 8.63636C19.2113 9.39205 19.2908 10.0341 19.4499 10.5625C19.609 11.0909 19.8377 11.4929 20.136 11.7685C20.4371 12.044 20.7994 12.1818 21.2227 12.1818ZM28.7227 13.1193C28.0806 13.1193 27.5337 12.9446 27.082 12.5952C26.6303 12.2429 26.2852 11.733 26.0465 11.0653C25.8079 10.3949 25.6886 9.58523 25.6886 8.63636C25.6886 7.69318 25.8079 6.88778 26.0465 6.22017C26.288 5.54972 26.6346 5.03835 27.0863 4.68608C27.5408 4.33097 28.0863 4.15341 28.7227 4.15341C29.359 4.15341 29.9031 4.33097 30.3548 4.68608C30.8093 5.03835 31.1559 5.54972 31.3945 6.22017C31.636 6.88778 31.7567 7.69318 31.7567 8.63636C31.7567 9.58523 31.6374 10.3949 31.3988 11.0653C31.1602 11.733 30.815 12.2429 30.3633 12.5952C29.9116 12.9446 29.3647 13.1193 28.7227 13.1193ZM28.7227 12.1818C29.359 12.1818 29.8533 11.875 30.2056 11.2614C30.5579 10.6477 30.734 9.77273 30.734 8.63636C30.734 7.88068 30.6531 7.23722 30.4911 6.70597C30.332 6.17472 30.1019 5.76989 29.8008 5.49148C29.5025 5.21307 29.1431 5.07386 28.7227 5.07386C28.092 5.07386 27.5991 5.38494 27.244 6.0071C26.8888 6.62642 26.7113 7.50284 26.7113 8.63636C26.7113 9.39205 26.7908 10.0341 26.9499 10.5625C27.109 11.0909 27.3377 11.4929 27.636 11.7685C27.9371 12.044 28.2994 12.1818 28.7227 12.1818ZM34.3306 10.6136L34.3136 9.36932H34.5181L37.3817 6.45455H38.6261L35.5749 9.53977H35.4897L34.3306 10.6136ZM33.3931 13V4.27273H34.3988V13H33.3931ZM37.5522 13L34.9954 9.76136L35.7113 9.0625L38.8306 13H37.5522Z" fill="#6C6C71"/>
<g filter="url(#filter0_b_3990_110673)">
<line x1="55.1016" y1="9.27344" x2="324.001" y2="9.27344" stroke="white" stroke-opacity="0.06"/>
</g>
<path d="M19.4847 52L23.3881 44.2784V44.2102H18.8881V43.2727H24.479V44.2614L20.5927 52H19.4847ZM28.7266 52.1193C28.0845 52.1193 27.5376 51.9446 27.0859 51.5952C26.6342 51.2429 26.2891 50.733 26.0504 50.0653C25.8118 49.3949 25.6925 48.5852 25.6925 47.6364C25.6925 46.6932 25.8118 45.8878 26.0504 45.2202C26.2919 44.5497 26.6385 44.0384 27.0902 43.6861C27.5447 43.331 28.0902 43.1534 28.7266 43.1534C29.3629 43.1534 29.907 43.331 30.3587 43.6861C30.8132 44.0384 31.1598 44.5497 31.3984 45.2202C31.6399 45.8878 31.7607 46.6932 31.7607 47.6364C31.7607 48.5852 31.6413 49.3949 31.4027 50.0653C31.1641 50.733 30.8189 51.2429 30.3672 51.5952C29.9155 51.9446 29.3686 52.1193 28.7266 52.1193ZM28.7266 51.1818C29.3629 51.1818 29.8572 50.875 30.2095 50.2614C30.5618 49.6477 30.7379 48.7727 30.7379 47.6364C30.7379 46.8807 30.657 46.2372 30.495 45.706C30.3359 45.1747 30.1058 44.7699 29.8047 44.4915C29.5064 44.2131 29.147 44.0739 28.7266 44.0739C28.0959 44.0739 27.603 44.3849 27.2479 45.0071C26.8928 45.6264 26.7152 46.5028 26.7152 47.6364C26.7152 48.392 26.7947 49.0341 26.9538 49.5625C27.1129 50.0909 27.3416 50.4929 27.6399 50.7685C27.9411 51.044 28.3033 51.1818 28.7266 51.1818ZM34.3345 49.6136L34.3175 48.3693H34.522L37.3857 45.4545H38.63L35.5788 48.5398H35.4936L34.3345 49.6136ZM33.397 52V43.2727H34.4027V52H33.397ZM37.5561 52L34.9993 48.7614L35.7152 48.0625L38.8345 52H37.5561Z" fill="#6C6C71"/>
<g filter="url(#filter1_b_3990_110673)">
<line x1="55.1016" y1="48.0391" x2="324.001" y2="48.0391" stroke="white" stroke-opacity="0.06"/>
</g>
<path d="M21.3026 90.1193C20.8026 90.1193 20.3523 90.0199 19.9517 89.821C19.5511 89.6222 19.2301 89.3494 18.9886 89.0028C18.7472 88.6562 18.6151 88.2614 18.5923 87.8182H19.6151C19.6548 88.2131 19.8338 88.5398 20.152 88.7983C20.473 89.054 20.8565 89.1818 21.3026 89.1818C21.6605 89.1818 21.9787 89.098 22.2571 88.9304C22.5384 88.7628 22.7585 88.5327 22.9176 88.2401C23.0795 87.9446 23.1605 87.6108 23.1605 87.2386C23.1605 86.858 23.0767 86.5185 22.9091 86.2202C22.7443 85.919 22.517 85.6818 22.2273 85.5085C21.9375 85.3352 21.6065 85.2472 21.2344 85.2443C20.9673 85.2415 20.6932 85.2827 20.4119 85.3679C20.1307 85.4503 19.8991 85.5568 19.7173 85.6875L18.7287 85.5682L19.2571 81.2727H23.7912V82.2102H20.1435L19.8366 84.7841H19.8878C20.0668 84.642 20.2912 84.5241 20.5611 84.4304C20.831 84.3366 21.1122 84.2898 21.4048 84.2898C21.9389 84.2898 22.4148 84.4176 22.8324 84.6733C23.2528 84.9261 23.5824 85.2727 23.821 85.7131C24.0625 86.1534 24.1832 86.6562 24.1832 87.2216C24.1832 87.7784 24.0582 88.2756 23.8082 88.7131C23.5611 89.1477 23.2202 89.4915 22.7855 89.7443C22.3509 89.9943 21.8565 90.1193 21.3026 90.1193ZM28.7227 90.1193C28.0806 90.1193 27.5337 89.9446 27.082 89.5952C26.6303 89.2429 26.2852 88.733 26.0465 88.0653C25.8079 87.3949 25.6886 86.5852 25.6886 85.6364C25.6886 84.6932 25.8079 83.8878 26.0465 83.2202C26.288 82.5497 26.6346 82.0384 27.0863 81.6861C27.5408 81.331 28.0863 81.1534 28.7227 81.1534C29.359 81.1534 29.9031 81.331 30.3548 81.6861C30.8093 82.0384 31.1559 82.5497 31.3945 83.2202C31.636 83.8878 31.7567 84.6932 31.7567 85.6364C31.7567 86.5852 31.6374 87.3949 31.3988 88.0653C31.1602 88.733 30.815 89.2429 30.3633 89.5952C29.9116 89.9446 29.3647 90.1193 28.7227 90.1193ZM28.7227 89.1818C29.359 89.1818 29.8533 88.875 30.2056 88.2614C30.5579 87.6477 30.734 86.7727 30.734 85.6364C30.734 84.8807 30.6531 84.2372 30.4911 83.706C30.332 83.1747 30.1019 82.7699 29.8008 82.4915C29.5025 82.2131 29.1431 82.0739 28.7227 82.0739C28.092 82.0739 27.5991 82.3849 27.244 83.0071C26.8888 83.6264 26.7113 84.5028 26.7113 85.6364C26.7113 86.392 26.7908 87.0341 26.9499 87.5625C27.109 88.0909 27.3377 88.4929 27.636 88.7685C27.9371 89.044 28.2994 89.1818 28.7227 89.1818ZM34.3306 87.6136L34.3136 86.3693H34.5181L37.3817 83.4545H38.6261L35.5749 86.5398H35.4897L34.3306 87.6136ZM33.3931 90V81.2727H34.3988V90H33.3931ZM37.5522 90L34.9954 86.7614L35.7113 86.0625L38.8306 90H37.5522Z" fill="#6C6C71"/>
<g filter="url(#filter2_b_3990_110673)">
<line x1="55.1016" y1="85.8125" x2="324.001" y2="85.8125" stroke="white" stroke-opacity="0.06"/>
</g>
<path d="M35.2539 128.119C34.6119 128.119 34.065 127.945 33.6133 127.595C33.1616 127.243 32.8164 126.733 32.5778 126.065C32.3391 125.395 32.2198 124.585 32.2198 123.636C32.2198 122.693 32.3391 121.888 32.5778 121.22C32.8192 120.55 33.1658 120.038 33.6175 119.686C34.0721 119.331 34.6175 119.153 35.2539 119.153C35.8903 119.153 36.4343 119.331 36.886 119.686C37.3406 120.038 37.6871 120.55 37.9258 121.22C38.1673 121.888 38.288 122.693 38.288 123.636C38.288 124.585 38.1687 125.395 37.93 126.065C37.6914 126.733 37.3462 127.243 36.8945 127.595C36.4428 127.945 35.896 128.119 35.2539 128.119ZM35.2539 127.182C35.8903 127.182 36.3846 126.875 36.7369 126.261C37.0891 125.648 37.2653 124.773 37.2653 123.636C37.2653 122.881 37.1843 122.237 37.0224 121.706C36.8633 121.175 36.6332 120.77 36.332 120.491C36.0337 120.213 35.6744 120.074 35.2539 120.074C34.6232 120.074 34.1303 120.385 33.7752 121.007C33.4201 121.626 33.2425 122.503 33.2425 123.636C33.2425 124.392 33.3221 125.034 33.4812 125.562C33.6403 126.091 33.869 126.493 34.1673 126.768C34.4684 127.044 34.8306 127.182 35.2539 127.182Z" fill="#6C6C71"/>
<g filter="url(#filter3_b_3990_110673)">
<line x1="55.1016" y1="123.586" x2="324.001" y2="123.586" stroke="white" stroke-opacity="0.06"/>
</g>
<path d="M54 115C54 113.343 55.3431 112 57 112C58.6569 112 60 113.343 60 115V124H54V115Z" fill="#FD366E"/>
<path d="M78 107C78 105.343 79.3431 104 81 104C82.6569 104 84 105.343 84 107V124H78V107Z" fill="#FD366E"/>
<path d="M102 87C102 85.3431 103.343 84 105 84C106.657 84 108 85.3431 108 87V124H102V87Z" fill="#FD366E"/>
<path d="M126 67C126 65.3431 127.343 64 129 64C130.657 64 132 65.3431 132 67V124H126V67Z" fill="#FD366E"/>
<path d="M150 71C150 69.3431 151.343 68 153 68C154.657 68 156 69.3431 156 71V124H150V71Z" fill="#FD366E"/>
<path d="M174 75C174 73.3431 175.343 72 177 72C178.657 72 180 73.3431 180 75V124H174V75Z" fill="#FD366E"/>
<path d="M198 69C198 67.3431 199.343 66 201 66C202.657 66 204 67.3431 204 69V124H198V69Z" fill="#FD366E"/>
<path d="M222 63C222 61.3431 223.343 60 225 60C226.657 60 228 61.3431 228 63V124H222V63Z" fill="#FD366E"/>
<path d="M246 55C246 53.3431 247.343 52 249 52C250.657 52 252 53.3431 252 55V124H246V55Z" fill="#FD366E"/>
<path d="M270 47C270 45.3431 271.343 44 273 44C274.657 44 276 45.3431 276 47V124H270V47Z" fill="#FD366E"/>
<path d="M294 35C294 33.3431 295.343 32 297 32C298.657 32 300 33.3431 300 35V124H294V35Z" fill="#FD366E"/>
<path d="M318 11C318 9.34315 319.343 8 321 8C322.657 8 324 9.34315 324 11V124H318V11Z" fill="#FD366E"/>
</g>
<defs>
<filter id="filter0_b_3990_110673" x="-144.898" y="-191.227" width="668.9" height="401" filterUnits="userSpaceOnUse" color-interpolation-filters="sRGB">
<feFlood flood-opacity="0" result="BackgroundImageFix"/>
<feGaussianBlur in="BackgroundImageFix" stdDeviation="100"/>
<feComposite in2="SourceAlpha" operator="in" result="effect1_backgroundBlur_3990_110673"/>
<feBlend mode="normal" in="SourceGraphic" in2="effect1_backgroundBlur_3990_110673" result="shape"/>
</filter>
<filter id="filter1_b_3990_110673" x="-144.898" y="-152.461" width="668.9" height="401" filterUnits="userSpaceOnUse" color-interpolation-filters="sRGB">
<feFlood flood-opacity="0" result="BackgroundImageFix"/>
<feGaussianBlur in="BackgroundImageFix" stdDeviation="100"/>
<feComposite in2="SourceAlpha" operator="in" result="effect1_backgroundBlur_3990_110673"/>
<feBlend mode="normal" in="SourceGraphic" in2="effect1_backgroundBlur_3990_110673" result="shape"/>
</filter>
<filter id="filter2_b_3990_110673" x="-144.898" y="-114.688" width="668.9" height="401" filterUnits="userSpaceOnUse" color-interpolation-filters="sRGB">
<feFlood flood-opacity="0" result="BackgroundImageFix"/>
<feGaussianBlur in="BackgroundImageFix" stdDeviation="100"/>
<feComposite in2="SourceAlpha" operator="in" result="effect1_backgroundBlur_3990_110673"/>
<feBlend mode="normal" in="SourceGraphic" in2="effect1_backgroundBlur_3990_110673" result="shape"/>
</filter>
<filter id="filter3_b_3990_110673" x="-144.898" y="-76.9141" width="668.9" height="401" filterUnits="userSpaceOnUse" color-interpolation-filters="sRGB">
<feFlood flood-opacity="0" result="BackgroundImageFix"/>
<feGaussianBlur in="BackgroundImageFix" stdDeviation="100"/>
<feComposite in2="SourceAlpha" operator="in" result="effect1_backgroundBlur_3990_110673"/>
<feBlend mode="normal" in="SourceGraphic" in2="effect1_backgroundBlur_3990_110673" result="shape"/>
</filter>
<clipPath id="clip0_3990_110673">
<rect width="324" height="133" fill="white"/>
</clipPath>
</defs>
</svg>

<svg xmlns="http://www.w3.org/2000/svg" width="324" height="133" fill="none"><g clip-path="url(#a)"><path fill="#6C6C71" d="M15.866 4.273V13H14.81V5.38h-.05l-2.132 1.415V5.722l2.182-1.45h1.057Zm5.357 8.846c-.642 0-1.19-.174-1.641-.524-.452-.352-.797-.862-1.035-1.53-.24-.67-.358-1.48-.358-2.429 0-.943.119-1.748.358-2.416.241-.67.588-1.182 1.04-1.534.454-.355 1-.533 1.636-.533.636 0 1.18.178 1.632.533.454.352.8.864 1.04 1.534.241.668.362 1.473.362 2.416 0 .95-.12 1.759-.358 2.43-.239.667-.584 1.177-1.036 1.53-.451.349-.998.523-1.64.523Zm0-.937c.636 0 1.13-.307 1.483-.92.352-.614.528-1.49.528-2.626 0-.755-.08-1.399-.243-1.93-.159-.531-.39-.936-.69-1.215a1.524 1.524 0 0 0-1.078-.417c-.631 0-1.124.31-1.479.933-.355.62-.533 1.496-.533 2.63 0 .755.08 1.397.239 1.925.159.529.388.93.686 1.207.301.275.663.413 1.087.413Zm7.5.937c-.642 0-1.19-.174-1.641-.524-.452-.352-.797-.862-1.035-1.53-.24-.67-.358-1.48-.358-2.429 0-.943.119-1.748.358-2.416.241-.67.588-1.182 1.04-1.534.454-.355 1-.533 1.636-.533.636 0 1.18.178 1.632.533.454.352.8.864 1.04 1.534.241.668.362 1.473.362 2.416 0 .95-.12 1.759-.358 2.43-.239.667-.584 1.177-1.036 1.53-.451.349-.998.523-1.64.523Zm0-.937c.636 0 1.13-.307 1.483-.92.352-.614.528-1.49.528-2.626 0-.755-.08-1.399-.243-1.93-.159-.531-.39-.936-.69-1.215a1.524 1.524 0 0 0-1.078-.417c-.631 0-1.124.31-1.479.933-.355.62-.533 1.496-.533 2.63 0 .755.08 1.397.239 1.925.159.529.388.93.686 1.207.301.275.663.413 1.087.413Zm5.608-1.568-.017-1.245h.204l2.864-2.914h1.244L35.575 9.54h-.085l-1.16 1.074ZM33.393 13V4.273H34.4V13h-1.006Zm4.16 0-2.558-3.239.716-.698L38.831 13h-1.279Z"/><g filter="url(#b)"><path stroke="#fff" stroke-opacity=".06" d="M55.102 9.273h268.899"/></g><path fill="#6C6C71" d="m19.485 52 3.903-7.722v-.068h-4.5v-.937h5.591v.988L20.593 52h-1.108Zm9.242.12c-.643 0-1.19-.175-1.641-.525-.452-.352-.797-.862-1.036-1.53-.238-.67-.358-1.48-.358-2.429 0-.943.12-1.748.358-2.416.242-.67.588-1.182 1.04-1.534.455-.355 1-.533 1.637-.533.636 0 1.18.178 1.632.533.454.352.8.864 1.04 1.534.24.668.362 1.473.362 2.416 0 .95-.12 1.759-.358 2.43-.239.667-.584 1.177-1.036 1.53-.451.349-.998.523-1.64.523Zm0-.938c.636 0 1.13-.307 1.482-.92.353-.614.529-1.49.529-2.626 0-.755-.081-1.399-.243-1.93-.16-.531-.39-.936-.69-1.215a1.524 1.524 0 0 0-1.078-.417c-.631 0-1.124.31-1.48.933-.354.62-.532 1.496-.532 2.63 0 .755.08 1.397.239 1.925.159.529.388.93.686 1.207.301.275.663.413 1.087.413Zm5.607-1.568-.017-1.245h.205l2.864-2.914h1.244l-3.051 3.085h-.085l-1.16 1.074ZM33.398 52v-8.727h1.006V52h-1.006Zm4.16 0-2.558-3.239.716-.699L38.835 52h-1.279Z"/><g filter="url(#c)"><path stroke="#fff" stroke-opacity=".06" d="M55.102 48.039h268.899"/></g><path fill="#6C6C71" d="M21.303 90.12c-.5 0-.95-.1-1.351-.299a2.508 2.508 0 0 1-.963-.818 2.23 2.23 0 0 1-.397-1.185h1.023c.04.395.219.722.537.98a1.79 1.79 0 0 0 1.15.384c.358 0 .677-.084.955-.252.281-.167.502-.397.66-.69a2.05 2.05 0 0 0 .243-1.001c0-.381-.083-.72-.25-1.019a1.846 1.846 0 0 0-.683-.712 1.927 1.927 0 0 0-.993-.264 2.73 2.73 0 0 0-.822.124 2.287 2.287 0 0 0-.695.32l-.988-.12.528-4.295h4.534v.937h-3.648l-.306 2.574h.05c.18-.142.404-.26.674-.354.27-.093.551-.14.844-.14.534 0 1.01.128 1.427.383.42.253.75.6.989 1.04.241.44.362.943.362 1.509 0 .556-.125 1.054-.375 1.491a2.74 2.74 0 0 1-1.023 1.031 2.92 2.92 0 0 1-1.482.375Zm7.42 0c-.642 0-1.19-.175-1.641-.525-.452-.352-.797-.862-1.035-1.53-.24-.67-.358-1.48-.358-2.429 0-.943.119-1.748.358-2.416.241-.67.588-1.182 1.04-1.534.454-.355 1-.533 1.636-.533.636 0 1.18.178 1.632.533.454.352.8.864 1.04 1.534.241.668.362 1.473.362 2.416 0 .95-.12 1.759-.358 2.43-.239.667-.584 1.177-1.036 1.53-.451.349-.998.523-1.64.523Zm0-.938c.636 0 1.13-.307 1.483-.92.352-.614.528-1.49.528-2.626 0-.755-.08-1.399-.243-1.93-.159-.531-.39-.936-.69-1.215a1.524 1.524 0 0 0-1.078-.417c-.631 0-1.124.31-1.479.933-.355.62-.533 1.496-.533 2.63 0 .755.08 1.397.239 1.925.159.529.388.93.686 1.207.301.275.663.413 1.087.413Zm5.608-1.568-.017-1.245h.204l2.864-2.915h1.244l-3.051 3.086h-.085l-1.16 1.074ZM33.393 90v-8.727H34.4V90h-1.006Zm4.16 0-2.558-3.239.716-.698L38.831 90h-1.279Z"/><g filter="url(#d)"><path stroke="#fff" stroke-opacity=".06" d="M55.102 85.813h268.899"/></g><path fill="#6C6C71" d="M35.254 128.119c-.642 0-1.189-.174-1.64-.524-.452-.352-.798-.862-1.036-1.53-.239-.67-.358-1.48-.358-2.429 0-.943.12-1.748.358-2.416.241-.67.588-1.182 1.04-1.534.454-.355 1-.533 1.636-.533.636 0 1.18.178 1.632.533.455.352.801.864 1.04 1.534.241.668.362 1.473.362 2.416 0 .949-.12 1.759-.358 2.429-.239.668-.584 1.178-1.035 1.53-.452.35-.999.524-1.641.524Zm0-.937c.636 0 1.13-.307 1.483-.921.352-.613.528-1.488.528-2.625 0-.755-.08-1.399-.243-1.93-.159-.531-.389-.936-.69-1.215a1.525 1.525 0 0 0-1.078-.417c-.63 0-1.124.311-1.479.933-.355.619-.532 1.496-.532 2.629 0 .756.08 1.398.238 1.926.16.529.388.931.686 1.206.301.276.664.414 1.087.414Z"/><g filter="url(#e)"><path stroke="#fff" stroke-opacity=".06" d="M55.102 123.586h268.899"/></g><path fill="#FD366E" d="M54 115a3 3 0 1 1 6 0v9h-6v-9ZM78 107a3 3 0 1 1 6 0v17h-6v-17ZM102 87a3 3 0 1 1 6 0v37h-6V87ZM126 67a3 3 0 1 1 6 0v57h-6V67ZM150 71a3 3 0 1 1 6 0v53h-6V71ZM174 75a3 3 0 1 1 6 0v49h-6V75ZM198 69a3 3 0 1 1 6 0v55h-6V69ZM222 63a3 3 0 1 1 6 0v61h-6V63ZM246 55a3 3 0 1 1 6 0v69h-6V55ZM270 47a3 3 0 1 1 6 0v77h-6V47ZM294 35a3 3 0 1 1 6 0v89h-6V35ZM318 11a3 3 0 1 1 6 0v113h-6V11Z"/></g><defs><filter id="b" width="668.9" height="401" x="-144.898" y="-191.227" color-interpolation-filters="sRGB" filterUnits="userSpaceOnUse"><feFlood flood-opacity="0" result="BackgroundImageFix"/><feGaussianBlur in="BackgroundImageFix" stdDeviation="100"/><feComposite in2="SourceAlpha" operator="in" result="effect1_backgroundBlur_3990_110673"/><feBlend in="SourceGraphic" in2="effect1_backgroundBlur_3990_110673" result="shape"/></filter><filter id="c" width="668.9" height="401" x="-144.898" y="-152.461" color-interpolation-filters="sRGB" filterUnits="userSpaceOnUse"><feFlood flood-opacity="0" result="BackgroundImageFix"/><feGaussianBlur in="BackgroundImageFix" stdDeviation="100"/><feComposite in2="SourceAlpha" operator="in" result="effect1_backgroundBlur_3990_110673"/><feBlend in="SourceGraphic" in2="effect1_backgroundBlur_3990_110673" result="shape"/></filter><filter id="d" width="668.9" height="401" x="-144.898" y="-114.688" color-interpolation-filters="sRGB" filterUnits="userSpaceOnUse"><feFlood flood-opacity="0" result="BackgroundImageFix"/><feGaussianBlur in="BackgroundImageFix" stdDeviation="100"/><feComposite in2="SourceAlpha" operator="in" result="effect1_backgroundBlur_3990_110673"/><feBlend in="SourceGraphic" in2="effect1_backgroundBlur_3990_110673" result="shape"/></filter><filter id="e" width="668.9" height="401" x="-144.898" y="-76.914" color-interpolation-filters="sRGB" filterUnits="userSpaceOnUse"><feFlood flood-opacity="0" result="BackgroundImageFix"/><feGaussianBlur in="BackgroundImageFix" stdDeviation="100"/><feComposite in2="SourceAlpha" operator="in" result="effect1_backgroundBlur_3990_110673"/><feBlend in="SourceGraphic" in2="effect1_backgroundBlur_3990_110673" result="shape"/></filter><clipPath id="a"><path fill="#fff" d="M0 0h324v133H0z"/></clipPath></defs></svg>
